img/svg/old/medicinecosmeticsbottletreatment_109776 1.svg

<svg width="48" height="49" viewBox="0 0 48 49" fill="none" xmlns="http://www.w3.org/2000/svg">
<g id="medicinecosmeticsbottletreatment_109776 1" clip-path="url(#clip0_64_171)">
<g id="Group 46194">
<path id="Vector" d="M13.1079 18.5728H-0.18439C-0.592759 18.5728 -0.922852 18.8895 -0.922852 19.2813V23.5323C-0.922852 23.9241 -0.592759 24.2408 -0.18439 24.2408H0.554072V40.5363C0.554072 40.9281 0.884164 41.2448 1.29253 41.2448H11.631C12.0394 41.2448 12.3695 40.9281 12.3695 40.5363V37.7023V27.0748V24.2408H13.1079C13.5163 24.2408 13.8464 23.9241 13.8464 23.5323V19.2813C13.8464 18.8895 13.5163 18.5728 13.1079 18.5728ZM4.98484 32.0343V30.6173H9.41561V29.2003H4.98484V27.7833H10.8925V36.9938H4.98484V33.4513H6.46176V32.0343H4.98484ZM10.8925 26.3663H4.24638C3.83801 26.3663 3.50792 26.683 3.50792 27.0748V37.7023C3.50792 38.0941 3.83801 38.4108 4.24638 38.4108H10.8925V39.8278H2.03099V24.2408H10.8925V26.3663ZM12.3695 22.8238H11.631H1.29253H0.554072V19.9898H12.3695V22.8238Z" fill="#2B7FFF"/>
<path id="Vector_2" d="M22.8926 18.7056V13.5258C22.8926 13.1224 22.5625 12.7963 22.1541 12.7963H21.4157V9.14908H22.8926V7.69019H14.7695V9.14908H19.9388V12.7963H19.2003C18.7919 12.7963 18.4618 13.1224 18.4618 13.5258V18.7056C16.7789 19.0448 15.508 20.5175 15.508 22.2792V23.7381V37.5976V40.5154C15.508 40.9188 15.8381 41.2448 16.2465 41.2448H25.108C25.5164 41.2448 25.8465 40.9188 25.8465 40.5154V37.5976V23.7381V22.2792C25.8465 20.5183 24.5756 19.0448 22.8926 18.7056ZM19.9388 14.2552H21.4157V18.6319H19.9388V14.2552ZM19.2003 20.0908H22.1541C23.3756 20.0908 24.3695 21.0727 24.3695 22.2792V23.0086H16.9849V22.2792C16.9849 21.0727 17.9789 20.0908 19.2003 20.0908ZM24.3695 36.8682H16.9849V35.4093H19.9388V33.9504H16.9849V24.4675H24.3695V36.8682ZM16.9849 39.7859V38.327H24.3695V39.7859H16.9849Z" fill="#2B7FFF"/>
<path id="Vector_3" d="M41.7696 17.666H29.308C28.9252 17.666 28.6157 17.9854 28.6157 18.3805V40.5305C28.6157 40.9256 28.9252 41.245 29.308 41.245H41.7696C42.1524 41.245 42.4619 40.9256 42.4619 40.5305V18.3805C42.4619 17.9854 42.1524 17.666 41.7696 17.666ZM41.0773 39.8159H30.0003V19.095H41.0773V39.8159Z" fill="#2B7FFF"/>
<path id="Vector_4" d="M10.1543 32.176H8.30811V33.0829H10.1543V32.176Z" fill="#2B7FFF"/>
<path id="Vector_5" d="M23.0771 33.9897H21.231V35.8035H23.0771V33.9897Z" fill="#2B7FFF"/>
<path id="Vector_6" d="M20.7693 32.1761C22.5511 32.1761 24.0001 30.7525 24.0001 29.002C24.0001 27.2515 22.5511 25.8279 20.7693 25.8279C18.9876 25.8279 17.5386 27.2515 17.5386 29.002C17.5386 30.7525 18.9876 32.1761 20.7693 32.1761ZM20.7693 27.4149C21.6602 27.4149 22.3847 28.1267 22.3847 29.002C22.3847 29.8772 21.6602 30.589 20.7693 30.589C19.8785 30.589 19.154 29.8772 19.154 29.002C19.154 28.1267 19.8785 27.4149 20.7693 27.4149Z" fill="#2B7FFF"/>
<path id="Vector_7" d="M33.8078 24.9209H37.2694C38.6055 24.9209 39.6925 23.9039 39.6925 22.6537C39.6925 21.4035 38.6055 20.3865 37.2694 20.3865H33.8078C32.4717 20.3865 31.3848 21.4035 31.3848 22.6537C31.3848 23.9039 32.4717 24.9209 33.8078 24.9209ZM38.3078 22.6537C38.3078 23.1894 37.8419 23.6253 37.2694 23.6253H36.2309V21.682H37.2694C37.8419 21.682 38.3078 22.118 38.3078 22.6537ZM33.8078 21.682H34.8463V23.6253H33.8078C33.2353 23.6253 32.7694 23.1894 32.7694 22.6537C32.7694 22.118 33.2353 21.682 33.8078 21.682Z" fill="#2B7FFF"/>
<path id="Vector_8" d="M33.8078 32.1759H37.2694C38.6055 32.1759 39.6925 30.9555 39.6925 29.4553C39.6925 27.955 38.6055 26.7346 37.2694 26.7346H33.8078C32.4717 26.7346 31.3848 27.955 31.3848 29.4553C31.3848 30.9555 32.4717 32.1759 33.8078 32.1759ZM38.3078 29.4553C38.3078 30.0981 37.8419 30.6213 37.2694 30.6213H36.2309V28.2893H37.2694C37.8419 28.2893 38.3078 28.8124 38.3078 29.4553ZM33.8078 28.2893H34.8463V30.6213H33.8078C33.2353 30.6213 32.7694 30.0981 32.7694 29.4553C32.7694 28.8124 33.2353 28.2893 33.8078 28.2893Z" fill="#2B7FFF"/>
<path id="Vector_9" d="M33.8078 38.5243H37.2694C38.6055 38.5243 39.6925 37.3039 39.6925 35.8037C39.6925 34.3034 38.6055 33.083 37.2694 33.083H33.8078C32.4717 33.083 31.3848 34.3034 31.3848 35.8037C31.3848 37.3039 32.4717 38.5243 33.8078 38.5243ZM38.3078 35.8037C38.3078 36.4465 37.8419 36.9696 37.2694 36.9696H36.2309V34.6377H37.2694C37.8419 34.6377 38.3078 35.1608 38.3078 35.8037ZM33.8078 34.6377H34.8463V36.9696H33.8078C33.2353 36.9696 32.7694 36.4465 32.7694 35.8037C32.7694 35.1608 33.2353 34.6377 33.8078 34.6377Z" fill="#2B7FFF"/>
</g>
</g>
<defs>
<clipPath id="clip0_64_171">
<rect width="48" height="48" fill="white" transform="translate(0 0.5)"/>
</clipPath>
</defs>
</svg>

<svg xmlns="http://www.w3.org/2000/svg" fill="none" viewBox="0 0 48 49">
  <g fill="#2B7FFF" clip-path="url(#a)">
    <path d="M13.108 18.573H-.184c-.409 0-.739.317-.739.708v4.251c0 .392.33.709.739.709h.738v16.295c0 .392.33.709.739.709H11.63c.408 0 .739-.317.739-.709V24.241h.738c.408 0 .738-.317.738-.709v-4.25c0-.392-.33-.71-.738-.71ZM4.985 32.034v-1.417h4.43V29.2h-4.43v-1.417h5.907v9.21H4.986v-3.542h1.477v-1.417H4.985Zm5.907-5.668H4.247c-.408 0-.738.317-.738.709v10.627c0 .392.33.709.738.709h6.646v1.417H2.031V24.24h8.861v2.125Zm1.478-3.542H.553V19.99H12.37v2.834Zm10.523-4.118v-5.18c0-.404-.33-.73-.739-.73h-.738V9.15h1.477V7.69H14.77v1.46h5.169v3.646H19.2a.733.733 0 0 0-.738.73v5.18c-1.683.339-2.954 1.811-2.954 3.573v18.236c0 .404.33.73.739.73h8.861a.733.733 0 0 0 .738-.73V22.28c0-1.76-1.27-3.234-2.953-3.573Zm-2.954-4.45h1.477v4.376h-1.477v-4.377ZM19.2 20.09h2.954c1.222 0 2.215.982 2.215 2.188v.73h-7.384v-.73c0-1.206.994-2.188 2.215-2.188Zm5.17 16.777h-7.385V35.41h2.954v-1.46h-2.954v-9.483h7.384v12.401Zm-7.385 2.918v-1.459h7.384v1.459h-7.384ZM41.77 17.666H29.308a.703.703 0 0 0-.692.715v22.15c0 .395.31.714.692.714H41.77c.382 0 .692-.32.692-.714V18.38a.703.703 0 0 0-.692-.715Zm-.693 22.15H30V19.095h11.077v20.72Z"/>
    <path d="M10.154 32.176H8.308v.907h1.846v-.907Zm12.923 1.814h-1.846v1.813h1.846V33.99Zm-2.307-1.814c1.781 0 3.23-1.424 3.23-3.174s-1.449-3.174-3.23-3.174c-1.782 0-3.231 1.424-3.231 3.174s1.449 3.174 3.23 3.174Zm0-4.761c.89 0 1.615.712 1.615 1.587s-.725 1.587-1.616 1.587c-.89 0-1.615-.712-1.615-1.587s.724-1.587 1.615-1.587Zm13.038-2.495h3.461c1.337 0 2.424-1.016 2.424-2.266s-1.087-2.267-2.424-2.267h-3.461c-1.336 0-2.423 1.017-2.423 2.267s1.087 2.267 2.423 2.267Zm4.5-2.266c0 .535-.466.971-1.039.971h-1.038v-1.943h1.038c.573 0 1.039.436 1.039.972Zm-4.5-.972h1.038v1.943h-1.038c-.573 0-1.039-.436-1.039-.971 0-.536.466-.972 1.039-.972Zm0 10.494h3.461c1.337 0 2.424-1.22 2.424-2.72 0-1.501-1.087-2.721-2.424-2.721h-3.461c-1.336 0-2.423 1.22-2.423 2.72 0 1.5 1.087 2.72 2.423 2.72Zm4.5-2.72c0 .642-.466 1.165-1.039 1.165h-1.038V28.29h1.038c.573 0 1.039.523 1.039 1.166Zm-4.5-1.167h1.038v2.332h-1.038c-.573 0-1.039-.523-1.039-1.166 0-.643.466-1.166 1.039-1.166Zm0 10.235h3.461c1.337 0 2.424-1.22 2.424-2.72 0-1.5-1.087-2.721-2.424-2.721h-3.461c-1.336 0-2.423 1.22-2.423 2.72 0 1.5 1.087 2.721 2.423 2.721Zm4.5-2.72c0 .642-.466 1.166-1.039 1.166h-1.038v-2.332h1.038c.573 0 1.039.523 1.039 1.166Zm-4.5-1.166h1.038v2.332h-1.038c-.573 0-1.039-.523-1.039-1.166 0-.643.466-1.166 1.039-1.166Z"/>
  </g>
  <defs>
    <clipPath id="a">
      <path fill="#fff" d="M0 .5h48v48H0z"/>
    </clipPath>
  </defs>
</svg>
